elementary-add/apps/48/atlas.svg

<?xml version="1.0" encoding="UTF-8" standalone="no"?>
<!-- Created with Inkscape (http://www.inkscape.org/) -->
<svg id="svg6649" xmlns:rdf="http://www.w3.org/1999/02/22-rdf-syntax-ns#" xmlns="http://www.w3.org/2000/svg" height="48" width="48" version="1.1" xmlns:cc="http://creativecommons.org/ns#" xmlns:xlink="http://www.w3.org/1999/xlink" xmlns:dc="http://purl.org/dc/elements/1.1/">
 <defs id="defs6651">
  <linearGradient id="linearGradient3058" y2="43" gradientUnits="userSpaceOnUse" x2="24" gradientTransform="translate(.000004 1)" y1="5" x1="24">
   <stop id="stop4262" stop-color="#fff" offset="0"/>
   <stop id="stop4264" stop-color="#fff" stop-opacity=".23529" offset=".063165"/>
   <stop id="stop4266" stop-color="#fff" stop-opacity=".15686" offset=".95056"/>
   <stop id="stop4268" stop-color="#fff" stop-opacity=".39216" offset="1"/>
  </linearGradient>
  <radialGradient id="radialGradient5521-1" fx="6.2002" gradientUnits="userSpaceOnUse" cy="9.9571" cx="6.7304" gradientTransform="matrix(0 9.4976 -11.66 0 140.93 -79.161)" r="12.672">
   <stop id="stop4237" stop-color="#ffe600" offset="0"/>
   <stop id="stop4239" stop-color="#feff00" offset=".26238"/>
   <stop id="stop4241" stop-color="#007cff" offset=".70495"/>
   <stop id="stop4243" stop-color="#04f" offset="1"/>
  </radialGradient>
  <radialGradient id="radialGradient3013" gradientUnits="userSpaceOnUse" cy="43.5" cx="4.993" gradientTransform="matrix(2.3202 0 0 0.9 28.618 4.85)" r="2.5">
   <stop id="stop2883" stop-color="#181818" offset="0"/>
   <stop id="stop2885" stop-color="#181818" stop-opacity="0" offset="1"/>
  </radialGradient>
  <radialGradient id="radialGradient3015" gradientUnits="userSpaceOnUse" cy="43.5" cx="4.993" gradientTransform="matrix(2.3202 0 0 0.9 -19.382 -83.15)" r="2.5">
   <stop id="stop2889" stop-color="#181818" offset="0"/>
   <stop id="stop2891" stop-color="#181818" stop-opacity="0" offset="1"/>
  </radialGradient>
  <linearGradient id="linearGradient6647" y2="39.999" gradientUnits="userSpaceOnUse" x2="25.058" gradientTransform="matrix(1.1579 0 0 .64286 -3.7895 16.036)" y1="47.028" x1="25.058">
   <stop id="stop2895" stop-color="#181818" stop-opacity="0" offset="0"/>
   <stop id="stop2897" stop-color="#181818" offset=".5"/>
   <stop id="stop2899" stop-color="#181818" stop-opacity="0" offset="1"/>
  </linearGradient>
  <linearGradient id="linearGradient4258" y2="23.873" gradientUnits="userSpaceOnUse" x2="24.236" gradientTransform="matrix(.59145 0 0 .59145 6.1913 6.1517)" y1="12.41" x1="24.236">
   <stop id="stop4274" stop-color="#151515" offset="0"/>
   <stop id="stop4278" offset="1"/>
  </linearGradient>
  <filter id="filter4345" style="color-interpolation-filters:sRGB" height="1.32" width="1.3281" y="-.15998" x="-.16407">
   <feGaussianBlur id="feGaussianBlur4347" stdDeviation="1.546822"/>
  </filter>
  <linearGradient id="linearGradient4384" y2="23.873" gradientUnits="userSpaceOnUse" x2="24.236" gradientTransform="matrix(.67885 0 0 .67885 4.015 4.5058)" y1="12.41" x1="24.236">
   <stop id="stop4378" stop-color="#fff" offset="0"/>
   <stop id="stop4380" stop-color="#fff" stop-opacity="0" offset="1"/>
  </linearGradient>
  <linearGradient id="linearGradient4400" y2="20.124" gradientUnits="userSpaceOnUse" x2="25.864" y1="20.124" x1="15.249">
   <stop id="stop4396" stop-color="#ff3737" offset="0"/>
   <stop id="stop4402" stop-color="#ff4f37" offset=".5"/>
   <stop id="stop4398" stop-color="#ff3737" offset="1"/>
  </linearGradient>
 </defs>
 <metadata id="metadata6654">
  <rdf:RDF>
   <cc:Work rdf:about="">
    <dc:format>image/svg+xml</dc:format>
    <dc:type rdf:resource="http://purl.org/dc/dcmitype/StillImage"/>
    <dc:title/>
   </cc:Work>
  </rdf:RDF>
 </metadata>
 <rect id="rect2801-3" height="4.5" width="5.7895" y="41.75" x="40.211" fill="url(#radialGradient3013)"/>
 <rect id="rect3696-6" transform="scale(-1)" height="4.5" width="5.7895" y="-46.25" x="-7.7895" fill="url(#radialGradient3015)"/>
 <rect id="rect3700-4" height="4.5" width="32.421" y="41.75" x="7.7895" fill="url(#linearGradient6647)"/>
 <path id="path4231" style="color:#000000" d="m41.814 30.111l-32.175 14.389h31.861c1.108 0 2-0.892 2-2v-10.842l-1.686-1.547z" stroke="#393939" fill="#caffa1"/>
 <path id="path4229" style="color:#000000" d="m41.814 30.111l1.686 1.547v-2.301l-1.686 0.754z" stroke="#393939" fill="url(#radialGradient5521-1)"/>
 <path id="path4227" style="color:#000000" d="m21.719 11.66l-6.709-6.16h-8.51c-1.108 0-2 0.892-2 2v12.139l17.219-7.979z" stroke="#393939" fill="#caffa1"/>
 <path id="path4225" style="color:#000000" d="m21.719 11.66l-17.219 7.979v22.861c0 1.108 0.892 2 2 2h3.1387l32.175-14.389-20.095-18.451z" stroke="#393939" fill="#feffa1"/>
 <path id="path4223" style="color:#000000" d="m35.014 5.5h-20.004l6.709 6.16 13.295-6.16z" stroke="#393939" fill="#feffa1"/>
 <path id="rect5505-21" style="color:#000000" d="m35.014 5.5l-13.295 6.16 20.095 18.451 1.686-0.754v-21.857c0-1.108-0.892-2-2-2h-6.486z" stroke="#393939" fill="#caffa1"/>
 <rect id="rect6741" opacity=".5" stroke-linejoin="round" rx="1" ry="1" height="37" width="37" stroke="url(#linearGradient3058)" stroke-linecap="round" y="6.5" x="5.5" fill="none"/>
 <rect id="rect5505-21-3-2" opacity=".4" stroke-linejoin="round" style="color:#000000" rx="2" ry="2" height="39" width="39" stroke="#c5c5c5" stroke-linecap="round" y="5.5" x="4.5" fill="none"/>
 <path id="path4289" opacity=".3" d="m32.642 16.886c0 4.4014-4.285 17.358-8.1332 20.852-3.7391-3.2751-8.5699-16.45-8.5699-20.852 0-4.4014 3.7391-7.9694 8.3515-7.9694 4.6124 1e-7 8.3515 3.568 8.3515 7.9694z" transform="matrix(.30291 0.297 -0.297 .30291 24.06 10.534)" filter="url(#filter4345)"/>
 <circle id="circle4293" opacity="0.12" cx="24.332" transform="matrix(.30291 0.297 -0.297 .30291 29.456 11.331)" filter="url(#filter4345)" cy="17.217" r="4.6174"/>
 <path id="path4245" d="m25.801 16.068c0 2.7642-2.691 10.901-5.1078 13.095-2.3482-2.0568-5.382-10.331-5.382-13.095 0-2.7642 2.3482-5.005 5.2449-5.005s5.2449 2.2408 5.2449 5.005z" stroke="#000" stroke-width=".12560" fill="url(#linearGradient4400)"/>
 <circle id="path4248" cx="20.583" stroke="#000" cy="16.213" r="3.0791" stroke-width=".12197" fill="#d00"/>
 <circle id="circle4250" opacity=".15" stroke-width=".29218" stroke="url(#linearGradient4258)" cy="16.276" cx="20.583" r="2.8998" fill="none"/>
 <circle id="circle4374" opacity=".1" cx="20.533" stroke="url(#linearGradient4384)" cy="16.126" r="3.3283" stroke-width=".33535" fill="none"/>
</svg>

<?xml version="1.0" encoding="UTF-8" standalone="no"?>
<!-- Created with Inkscape (http://www.inkscape.org/) -->

<svg
   xmlns:dc="http://purl.org/dc/elements/1.1/"
   xmlns:cc="http://creativecommons.org/ns#"
   xmlns:rdf="http://www.w3.org/1999/02/22-rdf-syntax-ns#"
   xmlns:svg="http://www.w3.org/2000/svg"
   xmlns="http://www.w3.org/2000/svg"
   xmlns:sodipodi="http://sodipodi.sourceforge.net/DTD/sodipodi-0.dtd"
   xmlns:inkscape="http://www.inkscape.org/namespaces/inkscape"
   id="svg6649"
   height="48"
   width="48"
   version="1.1"
   inkscape:version="0.91 r13725"
   sodipodi:docname="atlas.svg">
  <sodipodi:namedview
     pagecolor="#ffffff"
     bordercolor="#666666"
     borderopacity="1"
     objecttolerance="10"
     gridtolerance="10"
     guidetolerance="10"
     inkscape:pageopacity="0"
     inkscape:pageshadow="2"
     inkscape:window-width="1535"
     inkscape:window-height="876"
     id="namedview54"
     showgrid="false"
     inkscape:zoom="4.9166667"
     inkscape:cx="-10.779661"
     inkscape:cy="24"
     inkscape:window-x="65"
     inkscape:window-y="24"
     inkscape:window-maximized="1"
     inkscape:current-layer="svg6649" />
  <defs
     id="defs6651">
    <linearGradient
       id="linearGradient3058"
       y2="43"
       gradientUnits="userSpaceOnUse"
       x2="24"
       gradientTransform="translate(4e-6,1)"
       y1="5"
       x1="24">
      <stop
         id="stop4262"
         stop-color="#fff"
         offset="0" />
      <stop
         id="stop4264"
         stop-color="#fff"
         stop-opacity=".23529"
         offset=".063165" />
      <stop
         id="stop4266"
         stop-color="#fff"
         stop-opacity=".15686"
         offset=".95056" />
      <stop
         id="stop4268"
         stop-color="#fff"
         stop-opacity=".39216"
         offset="1" />
    </linearGradient>
    <radialGradient
       id="radialGradient5521-1"
       fx="6.2002"
       gradientUnits="userSpaceOnUse"
       cy="9.9571"
       cx="6.7304"
       gradientTransform="matrix(0,9.4976,-11.66,0,140.93,-79.161)"
       r="12.672">
      <stop
         id="stop4237"
         stop-color="#ffe600"
         offset="0" />
      <stop
         id="stop4239"
         stop-color="#feff00"
         offset=".26238" />
      <stop
         id="stop4241"
         stop-color="#007cff"
         offset=".70495" />
      <stop
         id="stop4243"
         stop-color="#04f"
         offset="1" />
    </radialGradient>
    <linearGradient
       id="linearGradient4258"
       y2="23.873"
       gradientUnits="userSpaceOnUse"
       x2="24.236"
       gradientTransform="matrix(0.59145,0,0,0.59145,6.1913,6.1517)"
       y1="12.41"
       x1="24.236">
      <stop
         id="stop4274"
         stop-color="#151515"
         offset="0" />
      <stop
         id="stop4278"
         offset="1" />
    </linearGradient>
    <filter
       id="filter4345"
       style="color-interpolation-filters:sRGB"
       height="1.32"
       width="1.3281"
       y="-.15998"
       x="-.16407">
      <feGaussianBlur
         id="feGaussianBlur4347"
         stdDeviation="1.546822" />
    </filter>
    <linearGradient
       id="linearGradient4384"
       y2="23.873"
       gradientUnits="userSpaceOnUse"
       x2="24.236"
       gradientTransform="matrix(0.67885,0,0,0.67885,4.015,4.5058)"
       y1="12.41"
       x1="24.236">
      <stop
         id="stop4378"
         stop-color="#fff"
         offset="0" />
      <stop
         id="stop4380"
         stop-color="#fff"
         stop-opacity="0"
         offset="1" />
    </linearGradient>
    <linearGradient
       id="linearGradient4400"
       y2="20.124"
       gradientUnits="userSpaceOnUse"
       x2="25.864"
       y1="20.124"
       x1="15.249">
      <stop
         id="stop4396"
         stop-color="#ff3737"
         offset="0" />
      <stop
         id="stop4402"
         stop-color="#ff4f37"
         offset=".5" />
      <stop
         id="stop4398"
         stop-color="#ff3737"
         offset="1" />
    </linearGradient>
  </defs>
  <metadata
     id="metadata6654">
    <rdf:RDF>
      <cc:Work
         rdf:about="">
        <dc:format>image/svg+xml</dc:format>
        <dc:type
           rdf:resource="http://purl.org/dc/dcmitype/StillImage" />
        <dc:title />
      </cc:Work>
    </rdf:RDF>
  </metadata>
  <g
     id="g4182"
     transform="translate(0,-1)">
    <path
       d="M 41.814,30.111 9.639,44.5 41.5,44.5 c 1.108,0 2,-0.892 2,-2 l 0,-10.842 -1.686,-1.547 z"
       style="color:#000000;fill:#caffa1;stroke:#393939"
       id="path4231"
       inkscape:connector-curvature="0" />
    <path
       d="m 41.814,30.111 1.686,1.547 0,-2.301 -1.686,0.754 z"
       style="color:#000000;fill:url(#radialGradient5521-1);stroke:#393939"
       id="path4229"
       inkscape:connector-curvature="0" />
    <path
       d="M 21.719,11.66 15.01,5.5 6.5,5.5 c -1.108,0 -2,0.892 -2,2 l 0,12.139 17.219,-7.979 z"
       style="color:#000000;fill:#caffa1;stroke:#393939"
       id="path4227"
       inkscape:connector-curvature="0" />
    <path
       d="M 21.719,11.66 4.5,19.639 4.5,42.5 c 0,1.108 0.892,2 2,2 l 3.1387,0 32.175,-14.389 -20.095,-18.451 z"
       style="color:#000000;fill:#feffa1;stroke:#393939"
       id="path4225"
       inkscape:connector-curvature="0" />
    <path
       d="M 35.014,5.5 15.01,5.5 21.719,11.66 35.014,5.5 Z"
       style="color:#000000;fill:#feffa1;stroke:#393939"
       id="path4223"
       inkscape:connector-curvature="0" />
    <path
       d="M 35.014,5.5 21.719,11.66 41.814,30.111 43.5,29.357 43.5,7.5 c 0,-1.108 -0.892,-2 -2,-2 l -6.486,0 z"
       style="color:#000000;fill:#caffa1;stroke:#393939"
       id="rect5505-21"
       inkscape:connector-curvature="0" />
    <rect
       x="5.5"
       y="6.5"
       width="37"
       height="37"
       ry="1"
       rx="1"
       id="rect6741"
       style="opacity:0.5;fill:none;stroke:url(#linearGradient3058);stroke-linecap:round;stroke-linejoin:round" />
    <rect
       x="4.5"
       y="5.5"
       width="39"
       height="39"
       ry="2"
       rx="2"
       style="color:#000000;opacity:0.4;fill:none;stroke:#c5c5c5;stroke-linecap:round;stroke-linejoin:round"
       id="rect5505-21-3-2" />
    <path
       transform="matrix(0.30291,0.297,-0.297,0.30291,24.06,10.534)"
       d="m 32.642,16.886 c 0,4.4014 -4.285,17.358 -8.1332,20.852 -3.7391,-3.2751 -8.5699,-16.45 -8.5699,-20.852 0,-4.4014 3.7391,-7.9694 8.3515,-7.9694 4.6124,10e-8 8.3515,3.568 8.3515,7.9694 z"
       id="path4289"
       inkscape:connector-curvature="0"
       style="opacity:0.3;filter:url(#filter4345)" />
    <circle
       r="4.6174002"
       cy="17.216999"
       transform="matrix(0.30291,0.297,-0.297,0.30291,29.456,11.331)"
       cx="24.332001"
       id="circle4293"
       style="opacity:0.12000002;filter:url(#filter4345)" />
    <path
       d="m 25.801,16.068 c 0,2.7642 -2.691,10.901 -5.1078,13.095 -2.3482,-2.0568 -5.382,-10.331 -5.382,-13.095 0,-2.7642 2.3482,-5.005 5.2449,-5.005 2.8967,0 5.2449,2.2408 5.2449,5.005 z"
       id="path4245"
       style="fill:url(#linearGradient4400);stroke:#000000;stroke-width:0.1256"
       inkscape:connector-curvature="0" />
    <circle
       r="3.0790999"
       cy="16.212999"
       cx="20.583"
       id="path4248"
       style="fill:#dd0000;stroke:#000000;stroke-width:0.12197" />
    <circle
       r="2.8998001"
       cx="20.583"
       cy="16.275999"
       id="circle4250"
       style="opacity:0.15;fill:none;stroke:url(#linearGradient4258);stroke-width:0.29218" />
    <circle
       r="3.3283"
       cy="16.125999"
       cx="20.533001"
       id="circle4374"
       style="opacity:0.1;fill:none;stroke:url(#linearGradient4384);stroke-width:0.33535001" />
  </g>
</svg>
